images_sukapura_svg/cmd/lc_togglemergecells.svg

<svg viewBox="0 0 24 24" xmlns="http://www.w3.org/2000/svg" xmlns:xlink="http://www.w3.org/1999/xlink"><linearGradient id="a" gradientTransform="translate(32 -5)" gradientUnits="userSpaceOnUse" x1="14" x2="13.79661" y1="22" y2="2.135593"><stop offset="0" stop-color="#0040dd"/><stop offset="1" stop-color="#0a84ff"/></linearGradient><linearGradient id="b" gradientUnits="userSpaceOnUse" x1="9" x2="9" xlink:href="#a" y1="17" y2="10"/><linearGradient id="c" gradientUnits="userSpaceOnUse" x1="12" x2="12" xlink:href="#a" y1="18" y2="9"/><filter id="d" color-interpolation-filters="sRGB" height="1.094553" width="1.097492" x="-.048746" y="-.047277"><feGaussianBlur stdDeviation=".36559322"/></filter><path d="m3 4.0000001h18v18.5593219h-18z" filter="url(#d)" opacity=".15" stroke-width="1.015418"/><path d="m3 3v18h18v-18z" fill="#fff"/><path d="m8 3v2h-5v1h5v3h-2.4238281-.1367188-1.9082031-.53125v.5.5h.53125.3476562 3.0390626 10.1718752 3.039062.339844.53125v-.5-.5h-.53125-1.900391-.136718-2.431641v-3h5v-1h-5v-2h-1v2h-6v-2zm1 3h6v3h-6zm-6 11v.5.5h.53125 1.9335938.1660156 2.3691406v3h1v-3h6v3h1v-3h2.376953.166016 1.925781.53125v-.5-.5h-.53125-.353516-3.035156-10.1523436-3.0351563-.3613281z" fill="#bababa"/><path d="m2 2v1 3 4 1.875 3.228516 1.896484 4c0 .554.446 1 1 1h18c.554 0 1-.446 1-1v-3-2.888672-3.24414-1.867188-1-3-3-1h-1-18zm1 1h5 1 6 1 5v2 1 3 1 .869141 5.24414 1.886719 3h-5-1-6-1-5v-3-1-.894531-5.228516-.876953-1-3-1z" fill="#69696e"/><path d="m3 9v1h18v-1zm0 8v1h18v-1z" fill="url(#c)"/><g fill="#4d82b8" fill-rule="evenodd"><path d="m5.53125 8.9980469c-.398603-.0059065-.7981174.1556891-1.0800781.4375l-2.4511719 2.4472651v3.212891l2.4335938 2.4375c.4500989.471246 1.2249359.591623 1.796875.279297.5719389-.312326.8894647-1.030651.7363281-1.664062l.0273437.234374v-.388671h2.4746094c.875091 0 1.525391-.761569 1.525391-1.572266v-.84375l-.013672.162109c.02629-.160061.02629-.326266 0-.486328l.013672.16211v-.837891c0-.810697-.6503-1.572266-1.525391-1.572266h-2.4746094v-.421875l-.015625.181641c.1578391-.8517548-.581117-1.7539392-1.4472656-1.7675781z" fill="#fff" fill-opacity=".784314"/><path d="m5.515625 9.9921875a.50063809.50063809 0 0 0 -.3613281.1464845l-2.9511719 2.947266a.50005.50005 0 0 0 -.203125.394531.50005.50005 0 0 0 .1953125.404297l2.9570313 2.960937a.50005.50005 0 0 0 .8476562-.462891v-1.382812h3.46875c.2943125 0 .53125-.257844.53125-.578125v-.84375a.50005.50005 0 0 0 0-.162109v-.837891c0-.320281-.2369375-.578125-.53125-.578125h-3.46875v-1.416016a.50063809.50063809 0 0 0 -.484375-.5917965z" fill="url(#b)"/><g transform="matrix(-1 0 0 1 23.999939 0)"><path d="m5.53125 8.9980469c-.398603-.0059065-.7981174.1556891-1.0800781.4375l-2.4511719 2.4472651v3.212891l2.4335938 2.4375c.4500989.471246 1.2249359.591623 1.796875.279297.5719389-.312326.8894647-1.030651.7363281-1.664062l.027344.234374v-.388671h2.4746091c.875091 0 1.525391-.761569 1.525391-1.572266v-.84375l-.01367.162109c.02629-.160061.02629-.326266 0-.486328l.01367.16211v-.837891c0-.810697-.6503-1.572266-1.525391-1.572266h-2.4746094v-.421875l-.015625.181641c.1578391-.8517548-.581117-1.7539392-1.4472656-1.7675781z" fill="#fff" fill-opacity=".784314"/><path d="m5.515625 9.9921875a.50063809.50063809 0 0 0 -.3613281.1464845l-2.9511719 2.947266a.50005.50005 0 0 0 -.203125.394531.50005.50005 0 0 0 .1953125.404297l2.9570313 2.960937a.50005.50005 0 0 0 .8476562-.462891v-1.382812h3.46875c.2943125 0 .53125-.257844.53125-.578125v-.84375a.50005.50005 0 0 0 0-.162109v-.837891c0-.320281-.2369375-.578125-.53125-.578125h-3.46875v-1.416016a.50063809.50063809 0 0 0 -.484375-.5917965z" fill="url(#b)"/></g></g></svg>

<?xml version="1.0" encoding="UTF-8" standalone="no"?>
<svg
   xmlns:dc="http://purl.org/dc/elements/1.1/"
   xmlns:cc="http://creativecommons.org/ns#"
   xmlns:rdf="http://www.w3.org/1999/02/22-rdf-syntax-ns#"
   xmlns:svg="http://www.w3.org/2000/svg"
   xmlns="http://www.w3.org/2000/svg"
   xmlns:xlink="http://www.w3.org/1999/xlink"
   xmlns:sodipodi="http://sodipodi.sourceforge.net/DTD/sodipodi-0.dtd"
   xmlns:inkscape="http://www.inkscape.org/namespaces/inkscape"
   viewBox="0 0 24 24"
   version="1.1"
   id="svg14"
   sodipodi:docname="lc_togglemergecells.svg"
   inkscape:export-filename="/home/rizmut/Dokumen/Rizmut/Github/libreoffice-style-sukapura/images_sukapura/cmd/lc_togglemergecells.png"
   inkscape:export-xdpi="96"
   inkscape:export-ydpi="96"
   inkscape:version="0.92.3 (unknown)">
  <metadata
     id="metadata20">
    <rdf:RDF>
      <cc:Work
         rdf:about="">
        <dc:format>image/svg+xml</dc:format>
        <dc:type
           rdf:resource="http://purl.org/dc/dcmitype/StillImage" />
      </cc:Work>
    </rdf:RDF>
  </metadata>
  <defs
     id="defs18">
    <filter
       style="color-interpolation-filters:sRGB"
       id="b"
       height="1.094553"
       width="1.097492"
       x="-0.048746001"
       y="-0.047277">
      <feGaussianBlur
         stdDeviation=".36559322"
         id="feGaussianBlur957" />
    </filter>
    <linearGradient
       gradientTransform="translate(-41,-2)"
       id="a"
       gradientUnits="userSpaceOnUse"
       x1="12"
       x2="12"
       y1="3"
       y2="21">
      <stop
         offset="0"
         stop-color="#efefef"
         id="stop948" />
      <stop
         offset=".33333334"
         stop-color="#fff"
         id="stop950" />
      <stop
         offset=".8888889"
         stop-color="#fff"
         id="stop952" />
      <stop
         offset="1"
         stop-color="#f5f5f5"
         id="stop954" />
    </linearGradient>
    <linearGradient
       gradientTransform="translate(32,-5)"
       id="a-3"
       gradientUnits="userSpaceOnUse"
       x1="14"
       x2="13.79661"
       y1="22"
       y2="2.1355929">
      <stop
         offset="0"
         stop-color="#0040dd"
         id="stop1604" />
      <stop
         offset="1"
         stop-color="#0a84ff"
         id="stop1606" />
    </linearGradient>
    <linearGradient
       inkscape:collect="always"
       xlink:href="#a-3"
       id="linearGradient2192"
       x1="9"
       y1="17"
       x2="9"
       y2="10"
       gradientUnits="userSpaceOnUse" />
    <linearGradient
       inkscape:collect="always"
       xlink:href="#a-3"
       id="linearGradient2212"
       gradientUnits="userSpaceOnUse"
       x1="9"
       y1="17"
       x2="9"
       y2="10" />
    <linearGradient
       inkscape:collect="always"
       xlink:href="#a-3"
       id="linearGradient2231"
       x1="12"
       y1="18"
       x2="12"
       y2="9"
       gradientUnits="userSpaceOnUse" />
    <filter
       style="color-interpolation-filters:sRGB"
       id="b-6"
       height="1.094553"
       width="1.097492"
       x="-0.048746001"
       y="-0.047277">
      <feGaussianBlur
         stdDeviation=".36559322"
         id="feGaussianBlur957-7" />
    </filter>
  </defs>
  <sodipodi:namedview
     pagecolor="#ffffff"
     bordercolor="#666666"
     borderopacity="1"
     objecttolerance="10"
     gridtolerance="10"
     guidetolerance="10"
     inkscape:pageopacity="0"
     inkscape:pageshadow="2"
     inkscape:window-width="1366"
     inkscape:window-height="699"
     id="namedview16"
     showgrid="true"
     inkscape:zoom="16"
     inkscape:cx="7.001851"
     inkscape:cy="13.067215"
     inkscape:window-x="0"
     inkscape:window-y="0"
     inkscape:window-maximized="1"
     inkscape:current-layer="svg14">
    <inkscape:grid
       type="xygrid"
       id="grid827" />
  </sodipodi:namedview>
  <path
     inkscape:connector-curvature="0"
     style="opacity:0.15;stroke-width:1.01541805;filter:url(#b-6)"
     d="M 3,4.0000001 H 21 V 22.559322 H 3 Z"
     id="path960" />
  <path
     d="M 3,3 V 21 H 21 V 3 Z"
     id="path2"
     inkscape:connector-curvature="0"
     style="fill:#ffffff"
     sodipodi:nodetypes="ccccc" />
  <path
     style="fill:#bababa;fill-opacity:1"
     d="M 8 3 L 8 5 L 3 5 L 3 6 L 8 6 L 8 9 L 5.5761719 9 L 5.4394531 9 L 3.53125 9 L 3 9 L 3 9.5 L 3 10 L 3.53125 10 L 3.8789062 10 L 6.9179688 10 L 17.089844 10 L 20.128906 10 L 20.46875 10 L 21 10 L 21 9.5 L 21 9 L 20.46875 9 L 18.568359 9 L 18.431641 9 L 16 9 L 16 6 L 21 6 L 21 5 L 16 5 L 16 3 L 15 3 L 15 5 L 9 5 L 9 3 L 8 3 z M 9 6 L 15 6 L 15 9 L 9 9 L 9 6 z M 3 17 L 3 17.5 L 3 18 L 3.53125 18 L 5.4648438 18 L 5.6308594 18 L 8 18 L 8 21 L 9 21 L 9 18 L 15 18 L 15 21 L 16 21 L 16 18 L 18.376953 18 L 18.542969 18 L 20.46875 18 L 21 18 L 21 17.5 L 21 17 L 20.46875 17 L 20.115234 17 L 17.080078 17 L 6.9277344 17 L 3.8925781 17 L 3.53125 17 L 3 17 z "
     id="path4" />
  <path
     style="fill:#69696e;fill-opacity:1"
     d="M 2 2 L 2 3 L 2 6 L 2 10 L 2 11.875 L 2 15.103516 L 2 17 L 2 21 C 2 21.554 2.446 22 3 22 L 21 22 C 21.554 22 22 21.554 22 21 L 22 18 L 22 15.111328 L 22 11.867188 L 22 10 L 22 9 L 22 6 L 22 3 L 22 2 L 21 2 L 3 2 L 2 2 z M 3 3 L 8 3 L 9 3 L 15 3 L 16 3 L 21 3 L 21 5 L 21 6 L 21 9 L 21 10 L 21 10.869141 L 21 16.113281 L 21 18 L 21 21 L 16 21 L 15 21 L 9 21 L 8 21 L 3 21 L 3 18 L 3 17 L 3 16.105469 L 3 10.876953 L 3 10 L 3 9 L 3 6 L 3 5 L 3 3 z "
     id="path6" />
  <path
     style="opacity:1;fill:url(#linearGradient2231);fill-opacity:1;stroke:none;stroke-width:1;stroke-linecap:round;stroke-linejoin:round;stroke-miterlimit:4;stroke-dasharray:none;stroke-opacity:0"
     d="M 3 9 L 3 10 L 21 10 L 21 9 L 3 9 z M 3 17 L 3 18 L 21 18 L 21 17 L 3 17 z "
     id="rect2220" />
  <g
     id="g12"
     fill-rule="evenodd"
     fill="#4d82b8">
    <g
       id="g2204">
      <path
         id="path2194"
         d="M 5.53125 8.9980469 C 5.132647 8.9921404 4.7331326 9.153736 4.4511719 9.4355469 L 2 11.882812 L 2 15.095703 L 4.4335938 17.533203 C 4.8836927 18.004449 5.6585297 18.124826 6.2304688 17.8125 C 6.8024077 17.500174 7.1199335 16.781849 6.9667969 16.148438 L 6.9941406 16.382812 L 6.9941406 15.994141 L 9.46875 15.994141 C 10.343841 15.994141 10.994141 15.232572 10.994141 14.421875 L 10.994141 13.578125 L 10.980469 13.740234 C 11.006759 13.580173 11.006759 13.413968 10.980469 13.253906 L 10.994141 13.416016 L 10.994141 12.578125 C 10.994141 11.767428 10.343841 11.005859 9.46875 11.005859 L 6.9941406 11.005859 L 6.9941406 10.583984 L 6.9785156 10.765625 C 7.1363547 9.9138702 6.3973986 9.0116858 5.53125 8.9980469 z "
         style="fill:#ffffff;fill-opacity:0.78431373" />
      <path
         style="fill-opacity:1;fill:url(#linearGradient2192)"
         id="path10"
         d="M 5.515625 9.9921875 A 0.50063809 0.50063809 0 0 0 5.1542969 10.138672 L 2.203125 13.085938 A 0.50005 0.50005 0 0 0 2 13.480469 A 0.50005 0.50005 0 0 0 2.1953125 13.884766 L 5.1523438 16.845703 A 0.50005 0.50005 0 0 0 6 16.382812 L 6 15 L 9.46875 15 C 9.7630625 15 10 14.742156 10 14.421875 L 10 13.578125 A 0.50005 0.50005 0 0 0 10 13.416016 L 10 12.578125 C 10 12.257844 9.7630625 12 9.46875 12 L 6 12 L 6 10.583984 A 0.50063809 0.50063809 0 0 0 5.515625 9.9921875 z " />
    </g>
    <g
       id="g2210"
       transform="matrix(-1,0,0,1,23.999939,0)">
      <path
         style="fill:#ffffff;fill-opacity:0.78431373"
         d="M 5.53125,8.9980469 C 5.132647,8.9921404 4.7331326,9.153736 4.4511719,9.4355469 L 2,11.882812 v 3.212891 l 2.4335938,2.4375 c 0.4500989,0.471246 1.2249359,0.591623 1.796875,0.279297 0.5719389,-0.312326 0.8894647,-1.030651 0.7363281,-1.664062 l 0.027344,0.234374 V 15.994141 H 9.46875 c 0.875091,0 1.525391,-0.761569 1.525391,-1.572266 v -0.84375 l -0.01367,0.162109 c 0.02629,-0.160061 0.02629,-0.326266 0,-0.486328 l 0.01367,0.16211 v -0.837891 c 0,-0.810697 -0.6503,-1.572266 -1.525391,-1.572266 H 6.9941406 v -0.421875 l -0.015625,0.181641 C 7.1363547,9.9138702 6.3973986,9.0116858 5.53125,8.9980469 Z"
         id="path2206"
         inkscape:connector-curvature="0" />
      <path
         d="M 5.515625,9.9921875 A 0.50063809,0.50063809 0 0 0 5.1542969,10.138672 L 2.203125,13.085938 A 0.50005,0.50005 0 0 0 2,13.480469 0.50005,0.50005 0 0 0 2.1953125,13.884766 l 2.9570313,2.960937 A 0.50005,0.50005 0 0 0 6,16.382812 V 15 H 9.46875 C 9.7630625,15 10,14.742156 10,14.421875 v -0.84375 a 0.50005,0.50005 0 0 0 0,-0.162109 V 12.578125 C 10,12.257844 9.7630625,12 9.46875,12 H 6 V 10.583984 A 0.50063809,0.50063809 0 0 0 5.515625,9.9921875 Z"
         id="path2208"
         style="fill:url(#linearGradient2212);fill-opacity:1"
         inkscape:connector-curvature="0" />
    </g>
  </g>
</svg>
